app/assets/images/niveauB1.svg

<svg width="48" height="48" viewBox="0 0 48 48" fill="none" xmlns="http://www.w3.org/2000/svg">
<path d="M15.848 12.4C15.976 12.4 16.08 12.4427 16.16 12.528C16.24 12.6134 16.28 12.72 16.28 12.848V17.512C16.28 17.6507 16.232 17.768 16.136 17.864C16.0453 17.9547 15.9307 18 15.792 18C15.7173 18 15.6427 17.9894 15.568 17.968C15.4987 17.9414 15.448 17.9067 15.416 17.864L12.48 14.136V17.552C12.48 17.68 12.4373 17.7867 12.352 17.872C12.272 17.9574 12.1653 18 12.032 18C11.904 18 11.8 17.9574 11.72 17.872C11.64 17.7867 11.6 17.68 11.6 17.552V12.888C11.6 12.7494 11.6453 12.6347 11.736 12.544C11.832 12.448 11.9493 12.4 12.088 12.4C12.168 12.4 12.2453 12.416 12.32 12.448C12.4 12.48 12.4587 12.5227 12.496 12.576L15.408 16.288V12.848C15.408 12.72 15.448 12.6134 15.528 12.528C15.6133 12.4427 15.72 12.4 15.848 12.4Z" fill="#6E84FE"/>
<path d="M18.3068 17.512C18.3068 17.6507 18.2615 17.768 18.1708 17.864C18.0801 17.9547 17.9655 18 17.8268 18C17.6881 18 17.5735 17.9547 17.4828 17.864C17.3921 17.768 17.3468 17.6507 17.3468 17.512V14.208C17.3468 14.0694 17.3921 13.9547 17.4828 13.864C17.5735 13.768 17.6881 13.72 17.8268 13.72C17.9655 13.72 18.0801 13.768 18.1708 13.864C18.2615 13.9547 18.3068 14.0694 18.3068 14.208V17.512ZM17.8188 13.2C17.6375 13.2 17.5095 13.1707 17.4348 13.112C17.3601 13.0534 17.3228 12.9494 17.3228 12.8V12.648C17.3228 12.4987 17.3628 12.3947 17.4428 12.336C17.5228 12.2774 17.6508 12.248 17.8268 12.248C18.0135 12.248 18.1441 12.2774 18.2188 12.336C18.2935 12.3947 18.3308 12.4987 18.3308 12.648V12.8C18.3308 12.9547 18.2908 13.0614 18.2108 13.12C18.1361 13.1734 18.0055 13.2 17.8188 13.2Z" fill="#6E84FE"/>
<path d="M22.5814 13.728C22.7094 13.728 22.8161 13.7707 22.9014 13.856C22.9868 13.936 23.0294 14.0374 23.0294 14.16C23.0294 14.224 23.0081 14.304 22.9654 14.4L21.4694 17.696C21.4321 17.7867 21.3761 17.8587 21.3014 17.912C21.2321 17.9654 21.1521 17.9947 21.0614 18L20.9894 18.008C20.8988 18.008 20.8134 17.9814 20.7334 17.928C20.6588 17.8694 20.6001 17.792 20.5574 17.696L19.0694 14.4C19.0321 14.3147 19.0134 14.2294 19.0134 14.144C19.0134 14.0374 19.0588 13.9414 19.1494 13.856C19.2401 13.7654 19.3521 13.72 19.4854 13.72C19.5868 13.72 19.6801 13.7467 19.7654 13.8C19.8508 13.8534 19.9148 13.928 19.9574 14.024L21.0614 16.552L22.1574 14.032C22.2001 13.9307 22.2588 13.8534 22.3334 13.8C22.4081 13.7467 22.4908 13.7227 22.5814 13.728Z" fill="#6E84FE"/>
<path d="M27.5866 15.76C27.5812 15.888 27.5306 15.992 27.4346 16.072C27.3386 16.152 27.2266 16.192 27.0986 16.192H24.4586C24.5226 16.5067 24.6692 16.7547 24.8986 16.936C25.1279 17.112 25.3866 17.2 25.6746 17.2C25.8932 17.2 26.0639 17.1814 26.1866 17.144C26.3092 17.1014 26.4052 17.0587 26.4746 17.016C26.5492 16.968 26.5999 16.936 26.6266 16.92C26.7226 16.872 26.8132 16.848 26.8986 16.848C27.0106 16.848 27.1066 16.888 27.1866 16.968C27.2666 17.048 27.3066 17.1414 27.3066 17.248C27.3066 17.392 27.2319 17.5227 27.0826 17.64C26.9332 17.7627 26.7332 17.8667 26.4826 17.952C26.2319 18.0374 25.9786 18.08 25.7226 18.08C25.2746 18.08 24.8826 17.9867 24.5466 17.8C24.2159 17.6134 23.9599 17.3574 23.7786 17.032C23.5972 16.7014 23.5066 16.3307 23.5066 15.92C23.5066 15.4614 23.6026 15.0587 23.7946 14.712C23.9866 14.3654 24.2399 14.1014 24.5546 13.92C24.8692 13.7334 25.2052 13.64 25.5626 13.64C25.9146 13.64 26.2452 13.736 26.5546 13.928C26.8692 14.12 27.1199 14.3787 27.3066 14.704C27.4932 15.0294 27.5866 15.3814 27.5866 15.76ZM25.5626 14.52C24.9439 14.52 24.5786 14.8107 24.4666 15.392H26.5626V15.336C26.5412 15.112 26.4319 14.92 26.2346 14.76C26.0372 14.6 25.8132 14.52 25.5626 14.52Z" fill="#6E84FE"/>
<path d="M31.8824 13.64C32.0211 13.64 32.1358 13.6854 32.2264 13.776C32.3171 13.8667 32.3624 13.984 32.3624 14.128V17.512C32.3624 17.6507 32.3171 17.768 32.2264 17.864C32.1358 17.9547 32.0211 18 31.8824 18C31.7438 18 31.6291 17.9547 31.5384 17.864C31.4531 17.7734 31.4078 17.6587 31.4024 17.52C31.2691 17.6747 31.0878 17.808 30.8584 17.92C30.6344 18.0267 30.3971 18.08 30.1464 18.08C29.7784 18.08 29.4451 17.9867 29.1464 17.8C28.8478 17.608 28.6104 17.344 28.4344 17.008C28.2638 16.672 28.1784 16.2907 28.1784 15.864C28.1784 15.4374 28.2638 15.056 28.4344 14.72C28.6051 14.3787 28.8371 14.1147 29.1304 13.928C29.4291 13.736 29.7571 13.64 30.1144 13.64C30.3704 13.64 30.6104 13.688 30.8344 13.784C31.0584 13.8747 31.2478 13.992 31.4024 14.136V14.128C31.4024 13.9894 31.4478 13.8747 31.5384 13.784C31.6291 13.688 31.7438 13.64 31.8824 13.64ZM30.2664 17.2C30.6131 17.2 30.8958 17.0747 31.1144 16.824C31.3331 16.568 31.4424 16.248 31.4424 15.864C31.4424 15.48 31.3331 15.16 31.1144 14.904C30.8958 14.648 30.6131 14.52 30.2664 14.52C29.9251 14.52 29.6451 14.648 29.4264 14.904C29.2078 15.16 29.0984 15.48 29.0984 15.864C29.0984 16.248 29.2051 16.568 29.4184 16.824C29.6371 17.0747 29.9198 17.2 30.2664 17.2Z" fill="#6E84FE"/>
<path d="M36.5007 13.72C36.6394 13.72 36.754 13.768 36.8447 13.864C36.9354 13.9547 36.9807 14.0694 36.9807 14.208V16.24C36.9807 16.816 36.8207 17.2667 36.5007 17.592C36.186 17.9174 35.7354 18.08 35.1487 18.08C34.562 18.08 34.1114 17.9174 33.7967 17.592C33.482 17.2667 33.3247 16.816 33.3247 16.24V14.208C33.3247 14.0694 33.37 13.9547 33.4607 13.864C33.5514 13.768 33.666 13.72 33.8047 13.72C33.9434 13.72 34.058 13.768 34.1487 13.864C34.2394 13.9547 34.2847 14.0694 34.2847 14.208V16.24C34.2847 16.5654 34.3567 16.808 34.5007 16.968C34.6447 17.1227 34.8607 17.2 35.1487 17.2C35.442 17.2 35.6607 17.1227 35.8047 16.968C35.9487 16.808 36.0207 16.5654 36.0207 16.24V14.208C36.0207 14.0694 36.066 13.9547 36.1567 13.864C36.2474 13.768 36.362 13.72 36.5007 13.72Z" fill="#6E84FE"/>
<path fill-rule="evenodd" clip-rule="evenodd" d="M24 45C35.598 45 45 35.598 45 24C45 12.402 35.598 3 24 3C12.402 3 3 12.402 3 24C3 35.598 12.402 45 24 45ZM24 48C37.2548 48 48 37.2548 48 24C48 10.7452 37.2548 0 24 0C10.7452 0 0 10.7452 0 24C0 37.2548 10.7452 48 24 48Z" fill="#6E84FE"/>
<path d="M17.395 26.852C18.137 27.146 18.739 27.594 19.201 28.196C19.677 28.798 19.915 29.5751 19.915 30.5271C19.915 32.1931 19.439 33.3551 18.487 34.0131C17.535 34.6711 16.401 35 15.085 35H9.856C9.492 35 9.184 34.881 8.932 34.643C8.694 34.391 8.575 34.083 8.575 33.719V21.581C8.575 21.217 8.694 20.916 8.932 20.678C9.184 20.426 9.492 20.3 9.856 20.3H15.148C17.808 20.3 19.138 21.546 19.138 24.038C19.138 24.668 18.984 25.228 18.676 25.718C18.382 26.194 17.955 26.572 17.395 26.852ZM16.408 24.5C16.408 23.926 16.261 23.499 15.967 23.219C15.687 22.925 15.288 22.778 14.77 22.778H11.305V26.054H14.833C15.253 26.054 15.617 25.914 15.925 25.634C16.247 25.354 16.408 24.976 16.408 24.5ZM15.085 32.585C15.743 32.585 16.254 32.41 16.618 32.06C16.996 31.71 17.185 31.199 17.185 30.5271C17.185 29.701 16.968 29.162 16.534 28.91C16.1 28.658 15.568 28.532 14.938 28.532H11.305V32.585H15.085Z" fill="#6E84FE"/>
<path d="M25.5907 20.3C25.9407 20.3 26.2347 20.426 26.4727 20.678C26.7107 20.916 26.8297 21.217 26.8297 21.581V33.719C26.8297 34.083 26.6967 34.391 26.4307 34.643C26.1647 34.881 25.8357 35 25.4437 35C25.0517 35 24.7297 34.881 24.4777 34.643C24.2257 34.391 24.0997 34.083 24.0997 33.719V23.765L22.7977 24.563C22.5877 24.689 22.3637 24.752 22.1257 24.752C21.7757 24.752 21.4747 24.619 21.2227 24.353C20.9847 24.087 20.8657 23.793 20.8657 23.471C20.8657 23.247 20.9217 23.037 21.0337 22.841C21.1597 22.645 21.3207 22.491 21.5167 22.379L24.6877 20.489C24.9257 20.363 25.2267 20.3 25.5907 20.3Z" fill="#6E84FE"/>
<path d="M38.9732 27.65C39.3092 27.65 39.5892 27.762 39.8132 27.986C40.0372 28.196 40.1492 28.469 40.1492 28.805C40.1492 29.141 40.0372 29.421 39.8132 29.645C39.5892 29.855 39.3092 29.96 38.9732 29.96H36.0332V32.7111C36.0332 33.1031 35.9002 33.425 35.6342 33.677C35.3822 33.929 35.0602 34.055 34.6682 34.055C34.2762 34.055 33.9472 33.929 33.6812 33.677C33.4292 33.425 33.3032 33.1031 33.3032 32.7111V29.96H30.4262C30.0902 29.96 29.8102 29.848 29.5862 29.624C29.3622 29.4 29.2502 29.12 29.2502 28.784C29.2502 28.448 29.3622 28.175 29.5862 27.965C29.8102 27.755 30.0902 27.65 30.4262 27.65H33.3032V24.521C33.3032 24.129 33.4292 23.807 33.6812 23.555C33.9472 23.303 34.2832 23.177 34.6892 23.177C35.0812 23.177 35.4032 23.303 35.6552 23.555C35.9072 23.807 36.0332 24.129 36.0332 24.521V27.65H38.9732Z" fill="#6E84FE"/>
</svg>

<svg width="48" height="48" fill="none" xmlns="http://www.w3.org/2000/svg"><path d="M15.848 12.4c.128 0 .232.043.312.128a.45.45 0 01.12.32v4.664a.479.479 0 01-.488.488.81.81 0 01-.224-.032.333.333 0 01-.152-.104l-2.936-3.728v3.416a.434.434 0 01-.128.32.418.418 0 01-.32.128.408.408 0 01-.312-.128.45.45 0 01-.12-.32v-4.664a.479.479 0 01.488-.488c.08 0 .157.016.232.048.08.032.139.075.176.128l2.912 3.712v-3.44a.45.45 0 01.12-.32.434.434 0 01.32-.128zM18.307 17.512a.493.493 0 01-.136.352.466.466 0 01-.344.136.466.466 0 01-.344-.136.493.493 0 01-.136-.352v-3.304c0-.139.045-.253.136-.344a.453.453 0 01.344-.144c.138 0 .253.048.344.144.09.09.136.205.136.344v3.304zm-.488-4.312c-.181 0-.31-.03-.384-.088-.075-.059-.112-.163-.112-.312v-.152c0-.15.04-.253.12-.312.08-.059.208-.088.384-.088.186 0 .317.03.392.088.075.059.112.163.112.312v.152c0 .155-.04.261-.12.32-.075.053-.205.08-.392.08zM22.581 13.728c.128 0 .235.043.32.128.086.08.128.181.128.304a.62.62 0 01-.064.24l-1.496 3.296a.485.485 0 01-.408.304l-.072.008a.453.453 0 01-.256-.08.597.597 0 01-.176-.232L19.07 14.4a.634.634 0 01-.056-.256c0-.107.046-.203.136-.288a.457.457 0 01.336-.136c.102 0 .195.027.28.08.086.053.15.128.192.224l1.104 2.528 1.096-2.52a.529.529 0 01.176-.232.378.378 0 01.248-.072zM27.587 15.76a.411.411 0 01-.152.312.509.509 0 01-.336.12h-2.64c.064.315.21.563.44.744.229.176.488.264.776.264.218 0 .389-.019.512-.056a1.51 1.51 0 00.288-.128c.074-.048.125-.08.152-.096a.61.61 0 01.272-.072c.112 0 .208.04.288.12.08.08.12.173.12.28 0 .144-.075.275-.224.392-.15.123-.35.227-.6.312-.251.085-.504.128-.76.128-.448 0-.84-.093-1.176-.28a1.968 1.968 0 01-.768-.768 2.273 2.273 0 01-.272-1.112c0-.459.096-.861.288-1.208.192-.347.445-.61.76-.792.314-.187.65-.28 1.008-.28.352 0 .682.096.992.288.314.192.565.45.752.776.186.325.28.677.28 1.056zm-2.024-1.24c-.62 0-.984.29-1.096.872h2.096v-.056a.827.827 0 00-.328-.576 1.038 1.038 0 00-.672-.24zM31.882 13.64a.466.466 0 01.48.488v3.384a.493.493 0 01-.136.352.466.466 0 01-.344.136.466.466 0 01-.344-.136.513.513 0 01-.136-.344 1.676 1.676 0 01-.544.4c-.224.107-.46.16-.712.16-.368 0-.7-.093-1-.28a2.051 2.051 0 01-.712-.792 2.491 2.491 0 01-.256-1.144c0-.427.086-.808.256-1.144.171-.341.403-.605.696-.792.3-.192.627-.288.984-.288.256 0 .496.048.72.144.224.09.414.208.568.352v-.008c0-.139.046-.253.136-.344a.453.453 0 01.344-.144zm-1.616 3.56c.347 0 .63-.125.848-.376.22-.256.328-.576.328-.96s-.109-.704-.328-.96a1.063 1.063 0 00-.848-.384c-.34 0-.62.128-.84.384-.218.256-.328.576-.328.96s.107.704.32.96c.22.25.502.376.848.376zM36.5 13.72c.14 0 .254.048.345.144.09.09.136.205.136.344v2.032c0 .576-.16 1.027-.48 1.352-.315.325-.766.488-1.352.488-.587 0-1.038-.163-1.352-.488-.315-.325-.472-.776-.472-1.352v-2.032c0-.139.045-.253.136-.344a.453.453 0 01.344-.144c.138 0 .253.048.344.144.09.09.136.205.136.344v2.032c0 .325.072.568.216.728.144.155.36.232.648.232.293 0 .512-.077.656-.232.144-.16.216-.403.216-.728v-2.032c0-.139.045-.253.136-.344a.453.453 0 01.344-.144z" fill="#6E84FE"/><path fill-rule="evenodd" clip-rule="evenodd" d="M24 45c11.598 0 21-9.402 21-21S35.598 3 24 3 3 12.402 3 24s9.402 21 21 21zm0 3c13.255 0 24-10.745 24-24S37.255 0 24 0 0 10.745 0 24s10.745 24 24 24z" fill="#6E84FE"/><path d="M17.395 26.852a4.155 4.155 0 011.806 1.344c.476.602.714 1.38.714 2.331 0 1.666-.476 2.828-1.428 3.486-.952.658-2.086.987-3.402.987H9.856c-.364 0-.672-.119-.924-.357a1.296 1.296 0 01-.357-.924V21.581c0-.364.119-.665.357-.903.252-.252.56-.378.924-.378h5.292c2.66 0 3.99 1.246 3.99 3.738 0 .63-.154 1.19-.462 1.68-.294.476-.721.854-1.281 1.134zm-.987-2.352c0-.574-.147-1.001-.441-1.281-.28-.294-.679-.441-1.197-.441h-3.465v3.276h3.528c.42 0 .784-.14 1.092-.42.322-.28.483-.658.483-1.134zm-1.323 8.085c.658 0 1.169-.175 1.533-.525.378-.35.567-.861.567-1.533 0-.826-.217-1.365-.651-1.617-.434-.252-.966-.378-1.596-.378h-3.633v4.053h3.78zM25.59 20.3c.35 0 .645.126.883.378.238.238.357.539.357.903v12.138c0 .364-.133.672-.4.924-.265.238-.594.357-.986.357s-.714-.119-.966-.357a1.257 1.257 0 01-.378-.924v-9.954l-1.302.798c-.21.126-.434.189-.672.189-.35 0-.651-.133-.903-.399-.238-.266-.357-.56-.357-.882 0-.224.056-.434.168-.63.126-.196.287-.35.483-.462l3.17-1.89c.239-.126.54-.189.904-.189zM38.973 27.65c.336 0 .616.112.84.336.224.21.336.483.336.819 0 .336-.112.616-.336.84a1.18 1.18 0 01-.84.315h-2.94v2.751c0 .392-.133.714-.399.966-.252.252-.574.378-.966.378a1.38 1.38 0 01-.987-.378c-.252-.252-.378-.574-.378-.966V29.96h-2.877a1.14 1.14 0 01-.84-.336 1.14 1.14 0 01-.336-.84c0-.336.112-.609.336-.819a1.18 1.18 0 01.84-.315h2.877v-3.129c0-.392.126-.714.378-.966.266-.252.602-.378 1.008-.378.392 0 .714.126.966.378s.378.574.378.966v3.129h2.94z" fill="#6E84FE"/></svg>
